X:1
T:And He Comforts Me
T:And He Comforts Me
T:Joe Knapicius
C:Joe Knapicius
%%score 1 [ ( 2 3 ) ( 4 5 ) ] { ( 6 8 ) | 7 }
L:1/8
Q:1/4=68
M:4/4
K:Emin
V:1 treble nm="Flute\n(Alto \nRecorder)" snm="Fl.\n(AR)"
V:2 treble nm="S &amp; A" snm="S &amp; A"
V:3 treble 
V:4 bass nm="T &amp; B" snm="T &amp; B"
V:5 bass 
V:6 bass nm="Piano" snm="Pno."
V:8 bass 
V:7 bass 
V:1
 z8 | z8 | z8 | z8 | z8 | z8 | z8 | z8 | z8 | z8 | z8 | z4 (f4- | !turn!f2{f} e4) z2 | %13
 z4 (de{e} !turn!f2 | g6) z2 | z2 (de fg{g} !turn!a2 | b6) z2 | z4 (f4- | !turn!f2{f} e4) z2 | %19
 z4 (a4- | !turn!a2{a} g4) z2 | z4 (fg{g} !turn!a2 | b6) z2 | z2 (de fg{g} !turn!a2 | b6) z2 | z8 | %26
 z2 (g6- | !turn!g4{g} !turn!f4{f} | e4) z4 | z8 ||[M:12/8]"^throughout" z3 z3 z3 (g>=fg | %31
 a2 b c'ba ga/b/c' b2) z | (d'ba g>=fg a3) z (gf | e^fa ^gfe dd'c'/b/ a/=g/fe | %34
 d)(ba b3) z3 (g>=fg | a2 b c'ba ga/b/c' b2) z | (d'ba g>=fg a3) z (gf | %37
 e^fa ^gfe dd'c'/b/ a/=g/fe) | z (=fg e2) z (Bba/g/ ^f/e/^d^c ||[M:4/4] B)(bab- b3) z | z8 | z8 | %42
 z8 | z8 | z8 | z8 | z8 | z8 | z4 (f4- | !turn!f2{f} e4) z2 | z4 (a4- | !turn!a2{a} g4) z2 | %52
 z4 (fg{g} !turn!a2 | b6) z2 | z2 (de fg{g} !turn!a2 | b6) z2 | z2 (fg ab{b} !turn!c'2 | %57
 d'c' b4) z2 | z8 | z2 (g6- | !turn!g4{g} !turn!f4 |{f} e4) z4 | z8 | z2 (g6- | %64
 !turn!g4{g} !turn!f4 |{f} e4) z4 | z8 | z2 (g6- | !turn!g4{g} !turn!f4 | %69
{f} e4) z (f !fermata!e2) |] %70
V:2
 z8 | z8 | z8"^unison" | z4 z2 D2 | E3 F G4 | F2 D2 z2 D2 | E4 G4 | F4 z2 D2 | E3 F G2 G2 | %9
w: |||The|Lord is my|she- pherd; I|shall not|want. He|ma- keth me to|
 F2 D4 z2 | z4 E2 E2 | E2 D4 z2 |"^divided" z4"^Instrument change" (EF) G2 | %13
w: lie down|in green|pas- tures:|in * green|
"^Instrument change" A2"^Instrument change" A4 z2 | %14
w: pas- tures:|
"^Instrument change" z4"^Instrument change" (EF) G2 | %15
w: in * green|
"^Instrument change" A2"^Instrument change" A4"^unison" z2 |"^Instrument change" E3 F G2 G2 | %17
w: pas- tures:|lea- deth me be-|
 F6 z2 | z4 E2 E2 | E2 D4 z2 |"^divided" z4 (EF) G2 | %21
w: side|the still|wa- ters:|the * still|
"^Instrument change" A2"^Instrument change" A4 x2 | %22
w: wa- ters:|
"^Instrument change" z4"^Instrument change" (EF) G2 | %23
w: the * still|
"^Instrument change" A2"^Instrument change" A4 x2 | %24
w: wa- ters:|
"^Instrument change" z2"^Instrument change" !breath!G4 G2 | %25
w: He re-|
"^Instrument change" G4"^Instrument change" F4 |"^Instrument change" G6 z2 | z8 | %28
w: stor'th my|soul:||
"^Instrument change" z2"^Instrument change" !breath!G4 G2 | %29
w: He re-|
"^Instrument change" G4"^Instrument change" F4 || %30
w: stor'th my|
[M:12/8]"^Instrument change" G3-"^Instrument change" G2 z"^unison" B,2 B, (D2 E) | %31
w: soul: * He lea- deth *|
"^Instrument change" =F2 z C2 C (G2 F) D2 z | B,3 (D2 E) =F2 z C3 | E3 E3 D3 z3 | z6 (B,3 D2 E) | %35
w: me in the paths * of|right- eous- * ness for|His name's sake.|Yea, * *|
 =F2 z C2 C (G2 F) D2 z | (B,3 D2 E =F2) z C2 C | E3 (E3 D3) z3 | C3 (C3 B,3) z3 ||[M:4/4] z8 | %40
w: tho' I walk through * the|val- * * ley of the|sha- dow *|of death, *||
 z8 | z8 |"^Instrument change" z4 z2 D2 | E3 F G4 | F2 D2 z2 D2 | E4 G2 G2 | F2 z2 D2 D2 | E4 G4 | %48
w: ||I|will fear no|e- vil: for|thou art with|me: and thy|rod and|
 F6 z2 | z4 E2 E2 | (E2 D4) z2 |"^divided" z4"^Instrument change" (EF) G2 | %52
w: staff|com- fort|me: *|com- * fort|
"^Instrument change" A6 z2 |"^Instrument change" z4"^Instrument change" (EF) G2 | %54
w: me:|com- * fort|
"^Instrument change" A6 z2 | x4"^Instrument change" (EF)"^Instrument change" G2 | %56
w: me:|com- * fort|
"^Instrument change" A6 x2 | x2"^Instrument change" !breath!G4"^Instrument change" G2 | %58
w: me:|and He|
"^Instrument change" G4"^Instrument change" F4 |"^Instrument change" G6 z2 | z8 | %61
w: com- forts|me.||
"^Instrument change" z2"^Instrument change" !breath!G4 G2 | %62
w: and He|
"^Instrument change" G4"^Instrument change" F4 |"^Instrument change" G6 z2 | z8 | %65
w: com- forts|me.||
"^Instrument change" z2"^Instrument change" !breath!G4 G2 | %66
w: and He|
"^Instrument change" G4"^Instrument change" F4 |"^Instrument change" G6 z2 | z8 | z8 |] %70
w: com- forts|me.|||
V:3
 x8 | x8 | x8 | x8 | x8 | x8 | x8 | x8 | x8 | x8 | x8 | x8 | x4 E2 E2 | E2 D4 x2 | x4 E2 E2 | %15
 E2 D4 x2 | x8 | x8 | x8 | x8 | z4 E2 E2 | E2 D4 z2 | z4 E2 E2 | E2 D4 z2 | z2 !breath!E4 E2 | %25
 E4 (D2 C2) | B,6 x2 | x8 | z2 !breath!E4 E2 | E4 (D2 C2) ||[M:12/8] B,3- B,2 z B,2 B, D2 E | x12 | %32
 x12 | x12 | x12 | x12 | x12 | x12 | x12 ||[M:4/4] x8 | x8 | x8 | x8 | x8 | x8 | x8 | x8 | x8 | %48
 x8 | x8 | x8 | x4 E2 E2 | (E2"^Instrument change" D4) x2 | x4 E2 E2 | %54
 (E2"^Instrument change" D4) x2 | z4 E2 E2 | (E2"^Instrument change" D4) z2 | z2 !breath!E4 E2 | %58
 E4 (D2 C2) | B,6 x2 | x8 | z2 !breath!E4 E2 | E4 (D2 C2) | B,6 x2 | x8 | x2 !breath!E4 E2 | %66
 E4 (D2 C2) | B,6 x2 | x8 | x8 |] %70
V:4
 z8 | z8 | z8"^unison" | z4 z2 D,2 | E,3 F, G,4 | F,2 D,2 z2 D,2 | E,4 G,4 | F,4 z2 F,2 | %8
 G,3 A, B,2 B,2 | A,2 F,4 z2 | z4 G,2 G,2 | G,2 F,4 z2 | %12
"^divided" z4"^Instrument change" (G,A,) B,2 |"^Instrument change" A,2"^Instrument change" A,4 z2 | %14
"^Instrument change" z4"^Instrument change" (G,A,) B,2 | %15
"^Instrument change" A,2"^Instrument change" A,4"^unison" z2 |"^Instrument change" G,3 A, B,2 B,2 | %17
 A,6 z2 | z4 G,2 G,2 | G,2 F,4 z2 |"^divided" z4"^Instrument change" (G,A,) B,2 | %21
"^Instrument change" A,2"^Instrument change" A,4 z2 | %22
"^Instrument change" z4"^Instrument change" (G,A,) B,2 | %23
"^Instrument change" A,2"^Instrument change" A,4"^unison" z2 | %24
"^Instrument change" z2 !breath!B,4 B,2 | A,4 A,4 | G,6 z2 | z8 | %28
"^Instrument change" z2 !breath!B,4 B,2 | A,4 A,4 ||[M:12/8] G,3- G,2 z"^unison" G,2 G, G,3 | %31
 =F,2 z A,2 A, (B,2 A,) B,2 z | G,3 G,3 =F,2 z A,3 | (B,2 A,) ^G,3 A,3 z3 | z6 G,6 | %35
 =F,2 z A,2 A, (B,2 A,) B,2 z | (G,6 =F,2) z A,2 A, | (B,2 A,) (^G,3 A,3) z3 | =G,3 (G,3 F,3) z3 || %39
[M:4/4] z8 | z8 | z8 |"^Instrument change" z4 z2 D,2 | E,3 F, G,4 | F,2 D,2 z2 D,2 | E,4 G,2 G,2 | %46
 F,2 z2 F,2 F,2 | G,4 B,4 | A,6 z2 | z4 G,2 G,2 | (G,2 F,4) z2 | %51
"^divided" z4"^Instrument change" (G,A,) B,2 |"^Instrument change" A,6 z2 | %53
"^Instrument change" z4"^Instrument change" (G,A,) B,2 |"^Instrument change" A,6 z2 | %55
"^Instrument change" z4"^Instrument change" (G,A,) B,2 |"^Instrument change" A,6 z2 | %57
"^unison" z2 !breath!B,4 B,2 | A,4 A,4 | G,6 z2 | z8 |"^unison" z2 !breath!B,4 B,2 | A,4 A,4 | %63
 G,6 z2 | z8 |"^Instrument change" z2 !breath!B,4 B,2 | A,4 A,4 | G,6 z2 | z8 | z8 |] %70
V:5
 x8 | x8 | x8 | x8 | x8 | x8 | x8 | x8 | x8 | x8 | x8 | x8 | x4 G,2 G,2 | G,2 F,4 x2 | x4 G,2 G,2 | %15
 G,2 F,4 x2 | x8 | x8 | x8 | x8 | x4 G,2 G,2 | G,2 F,4 x2 | x4 G,2 G,2 | G,2 F,4 x2 | x8 | x8 | %26
 x8 | x8 | x8 | x8 ||[M:12/8] x12 | x12 | x12 | x12 | x12 | x12 | x12 | x12 | x12 ||[M:4/4] x8 | %40
 x8 | x8 | x8 | x8 | x8 | x8 | x8 | x8 | x8 | x8 | x8 | x4 G,2 G,2 | %52
 (G,2"^Instrument change" F,4) x2 | x4 G,2 G,2 | (G,2"^Instrument change" F,4) x2 | x4 G,2 G,2 | %56
 (G,2"^Instrument change" F,4) x2 | x8 | x8 | x8 | x8 | x8 | x8 | x8 | x8 | x8 | x8 | x8 | x8 | %69
 x8 |] %70
V:6
 z3 F, G,2 B,D"^Instrument change" |"^Instrument change" z3 E, F,2 A,C"^Instrument change" | %2
"^Instrument change" z3 F, G,2 B,D"^Instrument change" | %3
"^Instrument change" z3 E, F,2 A,C"^Instrument change" | %4
"^Instrument change" z3 F, G,2 B,D"^Instrument change" | %5
"^Instrument change" z3 E, F,2 A,C"^Instrument change" | %6
"^Instrument change" z3 F, G,2 B,D"^Instrument change" | %7
"^Instrument change" z3 E, F,2 A,C"^Instrument change" | %8
"^Instrument change" z3 F, G,2 B,D"^Instrument change" | %9
"^Instrument change" z3 E, F,2 A,C"^Instrument change" | %10
"^Instrument change" z3 F, G,2 B,D"^Instrument change" | %11
"^Instrument change" z3 E, F,2 A,C"^Instrument change" | %12
"^Instrument change" z3 F, G,2 B,D"^Instrument change" | %13
"^Instrument change" z3 E, F,2 A,C"^Instrument change" | %14
"^Instrument change" z3 F, G,2 B,D"^Instrument change" | %15
"^Instrument change" z3 E, F,2 A,C"^Instrument change" | %16
"^Instrument change" z3 F, G,2 B,D"^Instrument change" | %17
"^Instrument change" z3 E, F,2 A,C"^Instrument change" | %18
"^Instrument change" z3 F, G,2 B,D"^Instrument change" | %19
"^Instrument change" z3 E, F,2 A,C"^Instrument change" | %20
"^Instrument change" z3 F, G,2 B,D"^Instrument change" | %21
"^Instrument change" z3 E, F,2 A,C"^Instrument change" | %22
"^Instrument change" z3 F, G,2 B,D"^Instrument change" | %23
"^Instrument change" z3 E, F,2 A,C"^Instrument change" | %24
"^Instrument change" z3 F, G,2 B,D"^Instrument change" | %25
"^Instrument change" z3 E, F,2 A,C"^Instrument change" | %26
"^Instrument change" z3 F, G,2 B,D"^Instrument change" | %27
"^Instrument change" z3 E, F,2 A,C"^Instrument change" | %28
"^Instrument change" z3 F, G,2 B,D"^Instrument change" | %29
"^Instrument change" z3 E, F,2 A,C"^Instrument change" || %30
[M:12/8]"^Instrument change" B,3 B,3[K:treble] B,3 D2 E"^Instrument change" | %31
"^Instrument change" =F3 F3 G2 F D3"^Instrument change" | %32
"^Instrument change" B,3 D2 E =F3 C3"^Instrument change" | %33
"^Instrument change" A3 ^G3 =G3 F3"^Instrument change" | %34
"^Instrument change" B,3 B,3 B,3 D2 E"^Instrument change" | %35
"^Instrument change" =F3 F3 G2 F D3"^Instrument change" | %36
"^Instrument change" B,3 D2 E =F3 C3"^Instrument change" | %37
"^Instrument change" A3 ^G3 =G3 F3"^Instrument change" | %38
"^Instrument change" =F3 E3 E3 ^D3"^Instrument change" || %39
[M:4/4][K:bass]"^Instrument change" z3 F, G,2 B,=D"^Instrument change" | %40
"^Instrument change" z3 E, F,2 A,C"^Instrument change" | %41
"^Instrument change" z3 F, G,2 B,D"^Instrument change" | %42
"^Instrument change" z3 E, F,2 A,C"^Instrument change" | %43
"^Instrument change" z3 F, G,2 B,D"^Instrument change" | %44
"^Instrument change" z3 E, F,2 A,C"^Instrument change" | %45
"^Instrument change" z3 F, G,2 B,D"^Instrument change" | %46
"^Instrument change" z3 E, F,2 A,C"^Instrument change" | %47
"^Instrument change" z3 F, G,2 B,D"^Instrument change" | %48
"^Instrument change" z3 E, F,2 A,C"^Instrument change" | %49
"^Instrument change" z3 F, G,2 B,D"^Instrument change" | %50
"^Instrument change" z3 E, F,2 A,C"^Instrument change" | %51
"^Instrument change" z3 F, G,2 B,D"^Instrument change" | %52
"^Instrument change" z3 E, F,2 A,C"^Instrument change" | %53
"^Instrument change" z3 F, G,2 B,D"^Instrument change" | %54
"^Instrument change" z3 E, F,2 A,C"^Instrument change" | %55
"^Instrument change" z3 F, G,2 B,D"^Instrument change" | %56
"^Instrument change" z3 E, F,2 A,C"^Instrument change" | %57
"^Instrument change" z3 F, G,2 B,D"^Instrument change" | %58
"^Instrument change" z3 E, F,2 A,C"^Instrument change" | %59
"^Instrument change" z3 F, G,2 B,D"^Instrument change" | %60
"^Instrument change" z3 E, F,2 A,C"^Instrument change" | %61
"^Instrument change" z3 F, G,2 B,D"^Instrument change" | %62
"^Instrument change" z3 E, F,2 A,C"^Instrument change" | %63
"^Instrument change" z3 F, G,2 B,D"^Instrument change" | %64
"^Instrument change" z3 E, F,2 A,C"^Instrument change" | %65
"^Instrument change" z3 F, G,2 B,D"^Instrument change" | %66
"^Instrument change" z3 E, F,2 A,C"^Instrument change" | %67
"^Instrument change" z3 F, G,2 B,D"^Instrument change" | %68
"^Instrument change" z3 E, F,2 A,C"^Instrument change" | %69
"^Instrument change" E"^Instrument change"[EF] [EG]3 !fermata![EA]3 |] %70
V:7
!ped! E,,B,, E,3!ped-up! E,3!ped! |!ped! D,,A,, D,3!ped-up! D,3 |!ped! E,,B,, E,3!ped-up! E,3 | %3
!ped! D,,A,, D,3!ped-up! D,3 |!ped! E,,B,, E,3!ped-up! E,3 |!ped! D,,A,, D,3!ped-up! D,3 | %6
!ped! E,,B,, E,3!ped-up! E,3 |!ped! D,,A,, D,3!ped-up! D,3 |!ped! E,,B,, E,3!ped-up! E,3 | %9
!ped! D,,A,, D,3!ped-up! D,3 |!ped! E,,B,, E,3!ped-up! E,3 |!ped! D,,A,, D,3!ped-up! D,3 | %12
!ped! E,,B,, E,3!ped-up! E,3 |!ped! D,,A,, D,3!ped-up! D,3 |!ped! E,,B,, E,3!ped-up! E,3 | %15
!ped! D,,A,, D,3!ped-up! D,3 |!ped! E,,B,, E,3!ped-up! E,3 |!ped! D,,A,, D,3!ped-up! D,3 | %18
!ped! E,,B,, E,3!ped-up! E,3 |!ped! D,,A,, D,3!ped-up! D,3 |!ped! E,,B,, E,3!ped-up! E,3 | %21
!ped! D,,A,, D,3!ped-up! D,3 |!ped! E,,B,, E,3!ped-up! E,3 |!ped! D,,A,, D,3!ped-up! D,3 | %24
!ped! E,,B,, E,3!ped-up! E,3 |!ped! D,,A,, D,3!ped-up! D,3 |!ped! E,,B,, E,3!ped-up! E,3 | %27
!ped! D,,A,, D,3!ped-up! D,3 |!ped! E,,B,, E,3!ped-up! E,3 |!ped! D,,A,, D,3!ped-up! D,3 || %30
[M:12/8]!ped! G,D,G,, G,D,G,, G,D,G,, G,D,!ped-up!G,, | %31
!ped! =F,C,=F,, F,C,F,, F,C,!ped-up!F,,!ped! G,D,G,, | %32
 G,D,G,, G,D,!ped-up!G,,!ped! =F,C,=F,, F,C,F,, | %33
!ped! E,B,,!ped-up!E,,!ped! E,B,,!ped-up!E,,!ped! D,A,,!ped-up!D,,!ped! D,A,,!ped-up!D,, | %34
!ped! G,D,G,, G,D,G,, G,D,G,, G,D,!ped-up!G,, | %35
!ped! =F,C,=F,, F,C,F,, F,C,!ped-up!F,,!ped! G,D,G,, | %36
 G,D,G,, G,D,!ped-up!G,,!ped! =F,C,=F,, F,C,F,, | %37
!ped! E,B,,!ped-up!E,,!ped! E,B,,!ped-up!E,,!ped! D,A,,!ped-up!D,,!ped! D,A,,!ped-up!D,, | %38
!ped! C,G,,!ped-up!C,,!ped! C,G,,!ped-up!C,,!ped! B,,F,,!ped-up!B,,,!ped! B,,F,,!ped-up!B,,, || %39
[M:4/4]!ped! E,,B,, E,3!ped-up! E,3 |!ped! D,,A,, D,3!ped-up! D,3 |!ped! E,,B,, E,3!ped-up! E,3 | %42
!ped! D,,A,, D,3!ped-up! D,3 |!ped! E,,B,, E,3!ped-up! E,3 |!ped! D,,A,, D,3!ped-up! D,3 | %45
!ped! E,,B,, E,3!ped-up! E,3 |!ped! D,,A,, D,3!ped-up! D,3 |!ped! E,,B,, E,3!ped-up! E,3 | %48
!ped! D,,A,, D,3!ped-up! D,3 |!ped! E,,B,, E,3!ped-up! E,3 |!ped! D,,A,, D,3!ped-up! D,3 | %51
!ped! E,,B,, E,3!ped-up! E,3 |!ped! D,,A,, D,3!ped-up! D,3 |!ped! E,,B,, E,3!ped-up! E,3 | %54
!ped! D,,A,, D,3!ped-up! D,3 |!ped! E,,B,, E,3!ped-up! E,3 |!ped! D,,A,, D,3!ped-up! D,3 | %57
!ped! E,,B,, E,3!ped-up! E,3 |!ped! D,,A,, D,3!ped-up! D,3 |!ped! E,,B,, E,3!ped-up! E,3 | %60
!ped! D,,A,, D,3!ped-up! D,3 |!ped! E,,B,, E,3!ped-up! E,3 |!ped! D,,A,, D,3!ped-up! D,3 | %63
!ped! E,,B,, E,3!ped-up! E,3 |!ped! D,,A,, D,3!ped-up! D,3 |!ped! E,,B,, E,3!ped-up! E,3 | %66
!ped! D,,A,, D,3!ped-up! D,3 |!ped! E,,B,, E,3!ped-up! E,3 |!ped! D,,A,, D,3!ped-up! D,3 | %69
!ped! E,,B,, E,3 !arpeggio!!fermata![E,,B,,E,]3 |] %70
V:8
 x8 | x8 | x8 | x8 | x8 | x8 | x8 | x8 | x8 | x8 | x8 | x8 | x8 | x8 | x8 | x8 | x8 | x8 | x8 | %19
 x8 | x8 | x8 | x8 | x8 | x8 | x8 | x8 | x8 | x8 | x8 ||[M:12/8] A,3 A,3[K:treble] A,3 A,3 | %31
 A,3 A,3 B,3 B,3 | A,3 A,3 A,3 A,3 | B,3 B,3 A,3 A,3 | A,3 A,3 A,3 A,3 | A,3 A,3 B,3 B,3 | %36
 A,3 A,3 A,3 A,3 | B,3 B,3 A,3 A,3 | G,3 G,3 ^F,3 F,3 ||[M:4/4][K:bass] x8 | x8 | x8 | x8 | x8 | %44
 x8 | x8 | x8 | x8 | x8 | x8 | x8 | x8 | x8 | x8 | x8 | x8 | x8 | x8 | x8 | x8 | x8 | x8 | x8 | %63
 x8 | x8 | x8 | x8 | x8 | x8 | x8 |] %70

